X:12
T:My Only Jo and Dearie O
C:Trad
S:Unknown, photocopy from John Wilson
I:speed 280
M:2/4
K:F
|:d2de fed^c | d2A2 A2F2 | G2B2 AGFE | F2D2 D2A2:|
d3e f2d2 | e3^c A2A2| d3e f2ed | e2c2 c2de |
f2d2 fed^c | d2 de f2F2 | G2B2 AGFE | F2D2 D2A2|
d3e f2d2 | e3^c A2A2 | d3e f2ed | e2c2 c2fg |
a2f2 agfe | defg a2F2 | G2AB AGFE | F2D2 D4|
